!!!Genre:	Freylekhs
!!!Mode:	Altered Dorian
!!!Edition:	2001
!!!Listening/dance:	dance
!!!Free rhythm?:	No
!!!Secondary Modes:	All altered Dorian
!!!One_Mode:	yes
**kern
*part1
*staff1
*clefG2
*k[b-]
*g:dor
*M2/4
=1-
*>A
8dL
16gL
16aJJ
16b-LL
16aJJ
24b-LL
24a
24gJJ
=2
8dL
16gL
16aJJ
16b-LL
16aJJ
24b-LL
24a
24gJJ
=3
8dL
16gL
16aJJ
8b-L
8ddJ
=4
16cc#XLL
16dd
16ee
16ddJJ
16cc#LL
16b-
16a
16gJJ
=5
8dL
16gL
16aJJ
16b-LL
16aJJ
(<24b-LL
24a
24gJJ)
=6
8dL
16gL
16aJJ
16b-LL
16aJJ
24b-LL
24a
24gJJ
=7
16eeLL
16dd
16cc#X
16b-JJ
16aLL
16g
16a
16b-JJ
=8
4g
4gg
=9:|!
2g
=10
*>B
(>8qcc#X/
2dd)
=11
(>8qcc#X/
2dd)
=12
(>8qcc#X/
4dd)
4dd
=13
(>8qcc#X/
4dd)
4dd
=14
8cc#XL
(>8qee/
8ddJ)
8ddL
8ddJ
=15
8cc#XL
8ddJ
16cc#LL
16b-
16a
16b-JJ
=16
8cc#XL
(>8qee/
8ddJ)
8ddL
8ddJ
=17
8cc#XL
8ddJ
16cc#LL
16b-
16a
16b-JJ
=18
(>8qa/
8cc#XL)
8cc#J
8cc#L
8cc#J
=19
8cc#XL
16eeL
16ddJJ
16cc#LL
16b-
16a
16gJJ
=20
16eeLL
16dd
16cc#X
16b-JJ
16aLL
16g
16a
16b-JJ
=21
2g
==
*-
